X:3
T:Kelsey's Wee Reel
R:Reel
C:Iain Symington, Arr. Adam Blaine
M:C|
L:1/8
K:D
[| {AGAG}A2 {g}c{d}A {g}ec{g}c{G}c | {g}Aa{g}ae {g}fe{g}fa | {AGAG}A2 {g}c{d}A {g}ec{g}c{G}c | {g}Bc{g}de {g}fe{g}fa | 
{AGAG}A2 {g}c{d}A {g}ec{g}c{G}c | {g}Aa{g}ae {g}fe{g}fa | Aa{g}ae {g}fc{g}c{G}c | {g}Bc{g}de {g}fe{g}fa ||
Aa{g}aB ac{G}ca | Aa{g}ae {g}fe{g}fa | Aa{g}aB ac{G}ca |Bc{g}de {g}fe{g}fa |
Aa{g}aB ac{G}ca | faea {g}ac{G}ca | Aa{g}aB ac{G}ca | Bc{g}de {g}fe{g}fa |
G{d}G{g}BG {g}dB{g}B{G}B | {g}Gg{a}gd {g}ed{g}eg | G{d}G{g}BG {g}dB{g}B{G}B | {g}GA{g}Bd {g}ed{g}eg | 
G{d}G{g}BG {g}dB{g}B{G}B | {g}Gg{a}gd {g}ed{g}eg | Gg{a}gd {g}eB{g}B{G}B | {g}Bc{g}de {g}fe{g}fa ||
Aa{g}aB ac{G}ca | Aa{g}ae {g}fe{g}fa | Aa{g}aB ac{G}ca | Bc{g}de {g}fe{g}fa |
Aa{g}aB ac{G}ca | faea daca | Aa{g}aB ac{G}ca | Bc{g}de {g}fadc |]
